; generated by PrusaSlicer 2.5.0+win64 on 2023-03-02 at 23:37:43 UTC
;
;
;
;
;
; external perimeters extrusion width = 0.45mm
; perimeters extrusion width = 0.45mm
; infill extrusion width = 0.45mm
; solid infill extrusion width = 0.45mm
; top infill extrusion width = 0.40mm
; first layer extrusion width = 0.42mm
M73 P0 R19
M201 X2500 Y2500 Z400 E5000 ; sets maximum accelerations, mm/sec^2
M203 X180 Y180 Z12 E80 ; sets maximum feedrates, mm / sec
M204 P1250 R1250 T2500 ; sets acceleration (P, T) and retract acceleration (R), mm/sec^2
M205 X8 Y8 Z2 E10 ; sets the jerk limits, mm/sec
M205 S0 T0 ; sets the minimum extruding and travel feed rate, mm/sec
M107
;TYPE:Custom
M862.3 P "MINI"  ; printer model check
G90 ; use absolute coordinates
M83 ; extruder relative mode
M104 S170 ; set extruder temp for bed leveling
M140 S60 ; set bed temp
M109 R170 ; wait for bed leveling temp
M190 S60 ; wait for bed temp
M204 T1250 ; set travel acceleration
G28 ; home all without mesh bed level
G29 ; mesh bed leveling
M204 T2500 ; restore travel acceleration
M104 S215 ; set extruder temp
G92 E0
;TRAVEL
G1 Y-2 X179 F2400 E.61697
G1 Z3 F720
M109 S215 ; wait for extruder temp
; intro line
M73 P0 R18
;TRAVEL
G1 X170 F1000 E-.00001
G1 Z.2 F720
G1 X110 E8.02781 F900
G1 X40 E10.11057 F700
G92 E0
M221 S95 ; set flow
G21 ; set units to millimeters
G90 ; use absolute coordinates
M83 ; use relative distances for extrusion
M900 K0.2 ; Filament gcode LA 1.5
; ; Filament gcode LA 1.0
M107
;LAYER_CHANGE
;Z:0.2
;HEIGHT:0.2
;BEFORE_LAYER_CHANGE
G92 E0
;0.2
G1 E-3.2 F4200
M73 P1 R18
G1 Z.2 F720
;AFTER_LAYER_CHANGE
;0.2
G1 Z.4
;TRAVEL
G1 X21.073 Y21.143 F9000 E.01172
G1 Z.2 F720
G1 E3.2 F2400
M204 P800
;TYPE:Skirt/Brim
G1 F1200
G1 X21.582 Y20.636 E.02254
G1 X22.556 Y19.847 E.03935
G1 X23.491 Y19.228 E.03518
G1 X24.636 Y18.622 E.04066
G1 X25.838 Y18.139 E.04067
G1 X27.044 Y17.793 E.03937
G1 X28.319 Y17.566 E.04067
G1 X29.437 Y17.478 E.03519
G1 X150.174 Y17.471 E4.0653
G1 X151.426 Y17.537 E.03933
G1 X152.535 Y17.703 E.03516
G1 X153.752 Y18.006 E.03933
G1 X154.77 Y18.365 E.03386
G1 X156.729 Y19.363 E.06896
G1 X157.756 Y20.083 E.03932
M73 P2 R18
G1 X158.609 Y20.811 E.03515
G1 X159.48 Y21.713 E.03932
G1 X160.178 Y22.59 E.03515
G1 X160.772 Y23.492 E.03385
G1 X161.361 Y24.599 E.03932
G1 X161.79 Y25.635 E.03515
G1 X162.157 Y26.834 E.03932
G1 X162.5 Y29.006 E.06894
G1 X162.525 Y150.452 E3.80785
G1 X162.277 Y152.637 E.06894
G1 X161.661 Y154.704 E.06765
G1 X161.221 Y155.69 E.03386
G1 X160.604 Y156.782 E.03932
G1 X159.294 Y158.496 E.06766
G1 X158.371 Y159.406 E.04062
G1 X157.359 Y160.214 E.04062
G1 X156.268 Y160.913 E.04062
G1 X155.109 Y161.493 E.04063
G1 X153.897 Y161.949 E.04063
G1 X152.814 Y162.239 E.03516
G1 X151.536 Y162.451 E.04063
G1 X150.243 Y162.529 E.04063
G1 X29.611 Y162.527 E4.0611
G1 X27.466 Y162.298 E.0678
M73 P3 R18
G1 X26.249 Y161.994 E.03937
G1 X25.231 Y161.636 E.0339
G1 X23.307 Y160.659 E.06778
G1 X21.551 Y159.336 E.06905
G1 X20.636 Y158.418 E.04065
G1 X19.823 Y157.41 E.04064
G1 X19.119 Y156.323 E.04064
G1 X18.533 Y155.167 E.04063
G1 X18.083 Y153.996 E.03933
G1 X17.746 Y152.746 E.04062
G1 X17.541 Y151.466 E.04062
G1 X17.471 Y150.173 E.04062
G1 X17.473 Y29.611 E3.78012
G1 X17.702 Y27.466 E.06765
G1 X18.006 Y26.249 E.03932
G1 X18.364 Y25.231 E.03386
G1 X19.341 Y23.307 E.06767
G1 X20.664 Y21.551 E.069
G1 X21.03 Y21.186 E.01621
M204 P1000
; printing object Shape-Cylinder id:0 copy 0
G1 E-2.24 F4200
;WIPE_START
G1 F7200
G1 X21.582 Y20.636 E1.72572
G1 X22.256 Y20.09 E1.92228
;WIPE_END
G1 E-.048 F4200
G1 Z.4 F720
;TRAVEL
G1 X143.61 Y36.851 F9000 E.30565
G1 Z.2 F720
G1 E3.2 F2400
M204 P800
;TYPE:External perimeter
G1 F1200
G1 X143.057 Y36.295 E.0246
G1 X142.596 Y35.753 E.02231
G1 X142.272 Y35.299 E.01747
G1 X141.847 Y34.642 E.02454
G1 X141.606 Y34.2 E.0158
G1 X141.391 Y33.748 E.01569
G1 X141.199 Y33.284 E.01574
G1 X141.031 Y32.811 E.01574
G1 X140.889 Y32.331 E.01569
G1 X140.769 Y31.787 E.01746
G1 X140.633 Y31.016 E.02455
G1 X140.586 Y30.518 E.01568
G1 X140.564 Y29.678 E.02635
G1 X140.585 Y29.178 E.01568
G1 X140.633 Y28.68 E.01569
G1 X140.726 Y28.131 E.01746
G1 X140.889 Y27.365 E.02455
G1 X141.032 Y26.884 E.01574
M73 P4 R18
G1 X141.199 Y26.411 E.01574
G1 X141.391 Y25.949 E.01568
G1 X141.766 Y25.196 E.02635
G1 X142.02 Y24.766 E.01568
G1 X142.297 Y24.347 E.01574
G1 X142.595 Y23.943 E.01574
G1 X142.914 Y23.557 E.01568
G1 X143.297 Y23.153 E.01747
G1 X143.861 Y22.61 E.02455
G1 X144.248 Y22.291 E.01574
G1 X144.652 Y21.992 E.01574
G1 X145.071 Y21.715 E.01574
G1 X145.503 Y21.46 E.01574
G1 X145.947 Y21.229 E.01568
G1 X146.718 Y20.894 E.02635
G1 X147.189 Y20.727 E.01568
G1 X147.669 Y20.585 E.01569
G1 X148.213 Y20.465 E.01746
G1 X148.984 Y20.329 E.02455
G1 X149.482 Y20.282 E.01569
G1 X150.32 Y20.26 E.02629
G1 X151.157 Y20.311 E.02629
G1 X151.653 Y20.376 E.01568
G1 X152.145 Y20.467 E.01568
G1 X152.958 Y20.678 E.02634
G1 X153.433 Y20.837 E.01569
G1 X153.9 Y21.021 E.01574
G1 X154.357 Y21.229 E.01574
G1 X154.8 Y21.46 E.01569
G1 X155.517 Y21.899 E.02635
G1 X155.924 Y22.19 E.01568
G1 X156.317 Y22.502 E.01574
G1 X156.693 Y22.835 E.01574
G1 X157.051 Y23.187 E.01574
G1 X157.39 Y23.557 E.01574
G1 X157.709 Y23.944 E.01574
G1 X158.008 Y24.348 E.01574
G1 X158.285 Y24.767 E.01574
G1 X158.54 Y25.199 E.01574
G1 X158.771 Y25.643 E.01568
G1 X159.106 Y26.414 E.02635
G1 X159.273 Y26.885 E.01568
G1 X159.415 Y27.365 E.01569
G1 X159.597 Y28.187 E.0264
G1 X159.691 Y28.893 E.02235
G1 X159.726 Y29.464 E.01791
G1 X159.74 Y30.018 E.01739
G1 X159.719 Y30.518 E.01568
G1 X159.671 Y31.016 E.01569
G1 X159.578 Y31.565 E.01747
G1 X159.415 Y32.331 E.02454
G1 X159.272 Y32.812 E.01574
G1 X159.078 Y33.332 E.01741
G1 X158.771 Y34.053 E.02455
G1 X158.539 Y34.498 E.01574
G1 X158.284 Y34.93 E.01574
G1 X158.007 Y35.349 E.01574
G1 X157.709 Y35.753 E.01574
G1 X157.39 Y36.139 E.01568
G1 X156.813 Y36.747 E.02629
G1 X156.185 Y37.302 E.02629
G1 X155.788 Y37.607 E.01568
G1 X155.376 Y37.89 E.01569
G1 X154.652 Y38.317 E.02634
G1 X154.204 Y38.54 E.01568
G1 X153.744 Y38.74 E.01574
G1 X153.274 Y38.916 E.01574
G1 X152.796 Y39.066 E.01569
G1 X151.979 Y39.262 E.02634
G1 X151.486 Y39.345 E.01568
G1 X150.987 Y39.401 E.01574
G1 X150.486 Y39.432 E.01574
G1 X149.984 Y39.436 E.01574
G1 X149.482 Y39.415 E.01574
G1 X148.984 Y39.367 E.01569
G1 X148.435 Y39.275 E.01746
G1 X147.669 Y39.111 E.02455
G1 X147.19 Y38.969 E.01569
G1 X146.403 Y38.675 E.02635
G1 X145.947 Y38.467 E.01568
G1 X145.504 Y38.236 E.01568
G1 X144.787 Y37.797 E.02635
G1 X144.212 Y37.373 E.0224
G1 X143.654 Y36.892 E.0231
M204 P1000
G1 E-2.24 F4200
;WIPE_START
G1 F7200
G1 X143.057 Y36.295 E1.87196
G1 X142.596 Y35.753 E1.57756
G1 X142.544 Y35.68 E.19848
;WIPE_END
G1 E-.048 F4200
G1 Z.4 F720
;TRAVEL
G1 X157.994 Y24.532 F9000 E.00128
G1 Z.2 F720
G1 E3.2 F2400
M204 P800
;TYPE:Solid infill
G1 F1200
G1 X156.5 Y23.042 E.06664
G1 X156.135 Y22.719 E.01539
G1 X155.754 Y22.415 E.01538
G1 X155.361 Y22.135 E.01525
G1 X154.599 Y21.674 E.0281
G1 X158.326 Y25.401 E.16649
G1 X158.515 Y25.765 E.01296
G1 X158.794 Y26.406 E.02208
G1 X153.591 Y21.203 E.23247
G1 X152.773 Y20.922 E.02731
G1 X159.08 Y27.229 E.28179
G1 X159.252 Y27.938 E.02307
G1 X152.052 Y20.738 E.32177
G1 X151.406 Y20.629 E.02069
G1 X159.372 Y28.595 E.35602
G1 X159.436 Y29.196 E.01909
G1 X150.813 Y20.573 E.3854
G1 X150.247 Y20.544 E.01789
G1 X159.45 Y29.748 E.41136
G1 X159.446 Y30.28 E.01682
G1 X149.724 Y20.558 E.43458
G1 X149.219 Y20.591 E.01596
G1 X159.409 Y30.781 E.4555
G1 X159.344 Y31.253 E.01505
G1 X148.743 Y20.651 E.47393
G1 X148.291 Y20.737 E.01451
G1 X159.267 Y31.713 E.4907
G1 X159.168 Y32.15 E.01417
G1 X147.852 Y20.834 E.50593
G1 X147.431 Y20.951 E.01379
G1 X159.049 Y32.569 E.51948
G1 X158.912 Y32.969 E.01334
M73 P5 R18
G1 X147.028 Y21.084 E.53139
G1 X146.642 Y21.236 E.01309
G1 X158.766 Y33.359 E.54213
G1 X158.605 Y33.736 E.01292
G1 X146.267 Y21.398 E.5517
G1 X145.903 Y21.571 E.01273
G1 X158.429 Y34.097 E.56017
G1 X158.241 Y34.446 E.01252
G1 X145.554 Y21.759 E.56741
G1 X145.216 Y21.958 E.01238
G1 X158.042 Y34.784 E.57362
G1 X157.828 Y35.107 E.01224
M73 P5 R17
G1 X144.893 Y22.172 E.57853
G1 X144.58 Y22.397 E.01215
G1 X157.603 Y35.42 E.58245
G1 X157.368 Y35.721 E.01208
G1 X144.279 Y22.632 E.58543
G1 X143.987 Y22.878 E.01204
G1 X157.121 Y36.012 E.58744
G1 X156.86 Y36.287 E.012
G1 X143.707 Y23.135 E.58829
G1 X143.692 Y23.149 E.00066
G1 X143.444 Y23.409 E.01134
G1 X156.596 Y36.561 E.58827
G1 X156.311 Y36.813 E.01201
M73 P6 R17
G1 X143.183 Y23.685 E.58724
G1 X142.936 Y23.975 E.01203
G1 X156.026 Y37.065 E.58553
G1 X155.724 Y37.3 E.01209
G1 X142.701 Y24.276 E.58254
G1 X142.476 Y24.589 E.01215
G1 X155.41 Y37.523 E.57858
G1 X155.084 Y37.734 E.01227
G1 X142.262 Y24.912 E.57354
G1 X142.063 Y25.25 E.01238
G1 X154.746 Y37.933 E.56734
G1 X154.401 Y38.125 E.01246
G1 X141.879 Y25.603 E.56014
G1 X141.7 Y25.961 E.01265
G1 X154.041 Y38.302 E.55201
G1 X153.667 Y38.465 E.01289
G1 X141.537 Y26.335 E.54258
G1 X141.388 Y26.724 E.01314
G1 X153.277 Y38.612 E.53178
G1 X152.873 Y38.745 E.01343
G1 X141.255 Y27.127 E.51968
G1 X141.136 Y27.546 E.01375
G1 X152.449 Y38.859 E.50599
G1 X152.016 Y38.963 E.01407
G1 X141.037 Y27.983 E.49105
G1 X140.96 Y28.443 E.01473
M73 P7 R17
G1 X151.562 Y39.045 E.47416
G1 X151.085 Y39.106 E.01517
G1 X140.895 Y28.916 E.45573
G1 X140.858 Y29.416 E.01584
G1 X150.585 Y39.143 E.43499
G1 X150.058 Y39.153 E.01664
G1 X140.854 Y29.948 E.41161
G1 X140.868 Y30.5 E.01742
G1 X149.5 Y39.132 E.38599
G1 X148.896 Y39.065 E.0192
G1 X140.932 Y31.101 E.35607
G1 X141.052 Y31.758 E.02108
G1 X148.251 Y38.957 E.32184
G1 X147.532 Y38.775 E.0234
G1 X141.225 Y32.468 E.28197
G1 X141.506 Y33.286 E.02731
G1 X146.706 Y38.486 E.23242
G1 X146.071 Y38.213 E.02181
G1 X145.705 Y38.022 E.01306
G1 X141.982 Y34.299 E.16633
G1 X142.343 Y34.911 E.02244
G1 X142.82 Y35.581 E.02597
G1 X143.126 Y35.952 E.01519
G1 X143.437 Y36.291 E.0145
G1 X144.845 Y37.699 E.06289
M204 P1000
; stop printing object Shape-Cylinder id:0 copy 0
; printing object Shape-Cylinder id:1 copy 0
G1 E-2.24 F4200
;WIPE_START
G1 F7200
G1 X143.681 Y36.535 E3.648
;WIPE_END
G1 E-.048 F4200
G1 Z.4 F720
;TRAVEL
G1 X141.938 Y145.209 F9000 E.00002
G1 Z.2 F720
G1 E3.2 F2400
M204 P800
;TYPE:External perimeter
G1 F1200
G1 X142.343 Y144.585 E.02333
G1 X142.645 Y144.184 E.01574
G1 X142.967 Y143.801 E.01569
G1 X143.354 Y143.4 E.01746
G1 X143.922 Y142.861 E.02456
G1 X144.312 Y142.545 E.01574
G1 X144.718 Y142.25 E.01574
G1 X145.138 Y141.978 E.01569
G1 X145.874 Y141.569 E.0264
G1 X146.572 Y141.259 E.02395
G1 X147.066 Y141.076 E.01651
G1 X147.747 Y140.869 E.02232
G1 X148.568 Y140.694 E.02634
G1 X149.399 Y140.592 E.02624
G1 X149.898 Y140.565 E.01569
G1 X150.399 Y140.565 E.01568
G1 X151.237 Y140.624 E.02635
G1 X151.943 Y140.734 E.0224
G1 X152.454 Y140.846 E.01642
G1 X152.957 Y140.985 E.01636
G1 X153.436 Y141.145 E.01583
G1 X153.908 Y141.332 E.01593
G1 X154.388 Y141.552 E.01653
G1 X155.015 Y141.887 E.02232
G1 X155.483 Y142.19 E.01747
G1 X156.12 Y142.645 E.02455
G1 X156.503 Y142.967 E.01569
G1 X157.108 Y143.55 E.02634
G1 X157.443 Y143.922 E.01568
G1 X157.759 Y144.312 E.01574
G1 X158.054 Y144.718 E.01574
G1 X158.326 Y145.138 E.01569
G1 X158.734 Y145.872 E.02635
G1 X158.946 Y146.326 E.01568
G1 X159.133 Y146.789 E.01568
G1 X159.393 Y147.589 E.02635
G1 X159.514 Y148.074 E.01569
G1 X159.61 Y148.567 E.01574
G1 X159.699 Y149.277 E.02245
G1 X159.734 Y150.119 E.02642
G1 X159.713 Y150.902 E.02455
G1 X159.66 Y151.401 E.01574
G1 X159.582 Y151.897 E.01574
G1 X159.478 Y152.386 E.01568
G1 X159.247 Y153.194 E.02635
G1 X159.076 Y153.664 E.01568
G1 X158.88 Y154.125 E.01568
G1 X158.499 Y154.874 E.02635
G1 X158.241 Y155.302 E.01568
G1 X157.961 Y155.719 E.01574
G1 X157.659 Y156.12 E.01574
G1 X157.337 Y156.503 E.01569
G1 X156.755 Y157.106 E.02629
G1 X156.122 Y157.657 E.02629
G1 X155.503 Y158.106 E.024
G1 X155.058 Y158.388 E.01651
G1 X154.435 Y158.732 E.02232
G1 X153.667 Y159.074 E.02635
G1 X153.197 Y159.246 E.01568
G1 X152.717 Y159.392 E.01574
G1 X152.23 Y159.514 E.01574
G1 X151.739 Y159.61 E.01569
G1 X150.617 Y159.727 E.03538
G1 X149.905 Y159.739 E.02232
G1 X149.067 Y159.68 E.02635
G1 X148.572 Y159.611 E.01569
G1 X148.079 Y159.515 E.01574
G1 X147.592 Y159.394 E.01575
G1 X147.113 Y159.248 E.01568
G1 X146.593 Y159.048 E.01746
G1 X145.875 Y158.735 E.02456
G1 X145.432 Y158.5 E.01574
G1 X145.002 Y158.241 E.01574
G1 X144.585 Y157.961 E.01575
G1 X144.184 Y157.659 E.01574
G1 X143.801 Y157.337 E.01568
G1 X143.196 Y156.754 E.02635
G1 X142.861 Y156.382 E.01568
G1 X142.545 Y155.992 E.01574
G1 X142.25 Y155.586 E.01574
G1 X141.977 Y155.165 E.01574
G1 X141.725 Y154.73 E.01574
G1 X141.498 Y154.285 E.01568
G1 X141.17 Y153.513 E.02629
G1 X140.999 Y152.985 E.01741
G1 X140.79 Y152.23 E.02455
G1 X140.694 Y151.737 E.01574
G1 X140.624 Y151.24 E.01574
G1 X140.58 Y150.742 E.01569
G1 X140.57 Y150.185 E.01746
G1 X140.591 Y149.402 E.02455
G1 X140.644 Y148.903 E.01574
G1 X140.722 Y148.407 E.01575
G1 X140.826 Y147.918 E.01568
G1 X141.057 Y147.11 E.02635
G1 X141.228 Y146.64 E.01568
G1 X141.424 Y146.179 E.01569
G1 X141.907 Y145.261 E.03254
M204 P1000
G1 E-2.24 F4200
;WIPE_START
G1 F7200
G1 X142.343 Y144.585 E1.7822
G1 X142.645 Y144.184 E1.11288
G1 X142.864 Y143.924 E.75292
;WIPE_END
G1 E-.048 F4200
G1 Z.4 F720
;TRAVEL
G1 X155.477 Y142.321 F9000 E.0009
G1 Z.2 F720
G1 E3.2 F2400
M204 P800
;TYPE:Solid infill
G1 F1200
G1 X156.921 Y143.765 E.06447
G1 X157.227 Y144.106 E.01448
G1 X157.534 Y144.484 E.01538
G1 X157.821 Y144.878 E.01538
G1 X158.084 Y145.283 E.01525
G1 X158.31 Y145.692 E.01475
G1 X154.597 Y141.978 E.16586
G1 X154.009 Y141.682 E.02078
M73 P8 R17
G1 X153.583 Y141.501 E.01463
G1 X158.799 Y146.717 E.233
G1 X159.077 Y147.533 E.02721
G1 X152.767 Y141.223 E.28189
G1 X152.051 Y141.043 E.02332
G1 X159.261 Y148.253 E.32214
G1 X159.371 Y148.901 E.02074
G1 X151.403 Y140.933 E.35603
G1 X150.811 Y140.878 E.01877
G1 X159.434 Y149.501 E.38533
G1 X159.45 Y150.053 E.01744
G1 X150.254 Y140.857 E.41094
G1 X149.718 Y140.858 E.01692
G1 X159.446 Y150.586 E.43476
G1 X159.409 Y151.086 E.01583
G1 X149.221 Y140.898 E.45532
G1 X148.743 Y140.957 E.01521
G1 X159.348 Y151.562 E.47402
G1 X159.267 Y152.018 E.01461
G1 X148.291 Y141.042 E.49062
G1 X147.848 Y141.136 E.01429
G1 X159.165 Y152.453 E.50586
G1 X159.045 Y152.87 E.01371
G1 X147.429 Y141.254 E.51928
G1 X147.026 Y141.388 E.0134
G1 X158.915 Y153.277 E.5315
G1 X158.768 Y153.666 E.01314
G1 X146.638 Y141.537 E.54227
G1 X146.264 Y141.699 E.01289
G1 X158.605 Y154.041 E.55179
G1 X158.424 Y154.397 E.01261
G1 X145.903 Y141.876 E.55982
G1 X145.558 Y142.068 E.01247
M73 P9 R17
G1 X158.242 Y154.752 E.56714
G1 X158.041 Y155.087 E.01236
G1 X145.217 Y142.263 E.57341
G1 X144.891 Y142.475 E.01225
G1 X157.827 Y155.411 E.57844
G1 X157.603 Y155.724 E.01215
G1 X144.58 Y142.7 E.58236
G1 X144.279 Y142.936 E.01208
G1 X157.368 Y156.026 E.58534
G1 X157.123 Y156.318 E.01203
G1 X143.988 Y143.183 E.58739
G1 X143.708 Y143.44 E.012
G1 X156.859 Y156.591 E.58812
G1 X156.596 Y156.864 E.01199
G1 X143.445 Y143.713 E.58813
G1 X143.181 Y143.986 E.01199
G1 X156.312 Y157.117 E.58723
G1 X156.025 Y157.367 E.01202
G1 X142.936 Y144.278 E.58536
G1 X142.701 Y144.58 E.01208
G1 X155.724 Y157.603 E.5824
G1 X155.411 Y157.827 E.01215
G1 X142.477 Y144.893 E.57845
G1 X142.263 Y145.217 E.01224
M73 P10 R17
G1 X155.087 Y158.041 E.57352
G1 X154.752 Y158.242 E.01235
G1 X142.062 Y145.552 E.56753
G1 X141.88 Y145.907 E.01259
G1 X154.402 Y158.429 E.56003
G1 X154.036 Y158.6 E.01275
G1 X141.699 Y146.263 E.55176
G1 X141.536 Y146.638 E.01289
G1 X153.665 Y158.766 E.54239
G1 X153.277 Y158.915 E.01311
